X:13
T: Koenig und Marquise
N: Q2035E
O: Mitteleuropa, Deutschland / Frankreich, Lothringen
N: Franzoesische Fassung der Ballade.
R: Ballade, Frauenraub
M: 6/8
L: 1/8
K: G
DDD | G2GA2A | B3
cBA | G2GA2A | B3
GGA | B3ABc | BA
AGAA | BGGD3
GABd2B | A3G3- | G3

